X:1
T:Bones and a Beer
C:SG & BQ 10/22/06 
M:4/4
L:1/4
K:Am
P:Swing it
"Am"A,A,B,B,|CCB,A,|"E7"EE3|EDCB,|
"Am"A,A,B,B,|CCB,A,|"E7"EE3|1EDCB,:|2EE2E||
"A"EE2E|GG^FE|"D7"D2"D#7"^D2|"E7"EEDC|
"A"EE2E|GG^FE|"D7"D2"D#7"^D2|"E7"E3E:|
